svgs/solid/clipboard-list-check.svg

<svg xmlns="http://www.w3.org/2000/svg" viewBox="0 0 384 512"><!--! Font Awesome Pro 6.0.0-alpha3 by @fontawesome - https://fontawesome.com License - https://fontawesome.com/license (Commercial License) --><path d="M336 64h-53.88C268.9 26.8 233.7 0 192 0S115.1 26.8 101.9 64H48C21.5 64 0 85.48 0 112v352C0 490.5 21.5 512 48 512h288c26.5 0 48-21.48 48-48v-352C384 85.48 362.5 64 336 64zM192 64c17.67 0 32 14.33 32 32c0 17.67-14.33 32-32 32S160 113.7 160 96C160 78.33 174.3 64 192 64zM96 392c-13.25 0-24-10.75-24-24S82.75 344 96 344s24 10.75 24 24S109.3 392 96 392zM112 288C107.9 288 103.8 286.4 100.7 283.3l-32-32c-6.25-6.25-6.25-16.38 0-22.62s16.38-6.25 22.62 0L112 249.4l52.69-52.69c6.25-6.25 16.38-6.25 22.62 0s6.25 16.38 0 22.62l-64 64C120.2 286.4 116.1 288 112 288zM304 384h-128C167.2 384 160 376.8 160 368C160 359.2 167.2 352 176 352h128c8.801 0 16 7.199 16 16C320 376.8 312.8 384 304 384zM304 288h-96C199.2 288 192 280.8 192 272C192 263.2 199.2 256 208 256h96C312.8 256 320 263.2 320 272C320 280.8 312.8 288 304 288z"/></svg>

<svg xmlns="http://www.w3.org/2000/svg" viewBox="0 0 384 512"><!--! Font Awesome Pro 6.4.2 by @fontawesome - https://fontawesome.com License - https://fontawesome.com/license (Commercial License) Copyright 2023 Fonticons, Inc. --><path d="M192 0c-41.8 0-77.4 26.7-90.5 64H64C28.7 64 0 92.7 0 128V448c0 35.3 28.7 64 64 64H320c35.3 0 64-28.7 64-64V128c0-35.3-28.7-64-64-64H282.5C269.4 26.7 233.8 0 192 0zm0 64a32 32 0 1 1 0 64 32 32 0 1 1 0-64zm-4.7 132.7c6.2 6.2 6.2 16.4 0 22.6l-64 64c-6.2 6.2-16.4 6.2-22.6 0l-32-32c-6.2-6.2-6.2-16.4 0-22.6s16.4-6.2 22.6 0L112 249.4l52.7-52.7c6.2-6.2 16.4-6.2 22.6 0zM192 272c0-8.8 7.2-16 16-16h96c8.8 0 16 7.2 16 16s-7.2 16-16 16H208c-8.8 0-16-7.2-16-16zm-16 80H304c8.8 0 16 7.2 16 16s-7.2 16-16 16H176c-8.8 0-16-7.2-16-16s7.2-16 16-16zM72 368a24 24 0 1 1 48 0 24 24 0 1 1 -48 0z"/></svg>
